static/logos/graphy-glyph-color.svg

<svg width="50" height="48" viewBox="0 0 50 48" fill="none" xmlns="http://www.w3.org/2000/svg">
<g clip-path="url(#clip0_1_2548)">
<path fill-rule="evenodd" clip-rule="evenodd" d="M30.5714 3.53224L10.6283 38.12C9.30366 40.4011 10.1132 43.5655 12.4681 44.89C14.7494 46.2148 17.9137 45.4055 19.2384 43.0505L29.1732 25.8302L39.1814 8.5364C40.5061 6.2551 39.6966 3.09069 37.3416 1.76607C35.0605 0.441442 31.8959 1.25094 30.5714 3.53224ZM10.6283 3.53224C11.9529 1.25094 15.1173 0.441442 17.3986 1.76607C19.6799 3.09069 20.563 6.2551 19.2384 8.5364L9.23007 25.8302C7.90543 28.1116 4.74105 28.9948 2.45973 27.67C0.178429 26.2718 -0.704659 23.1811 0.619971 20.826L10.6283 3.53224ZM40.5798 20.826C41.9043 18.5447 45.0686 17.6616 47.35 18.9863C49.6314 20.3109 50.5143 23.4755 49.1898 25.7568L39.1814 43.1241C37.8568 45.4055 34.6925 46.2882 32.4111 44.9636C30.1298 43.6393 29.2468 40.4746 30.5714 38.1932L40.5798 20.826Z" fill="#251D63"/>
</g>
<defs>
<clipPath id="clip0_1_2548">
<rect width="50" height="47.7273" fill="white"/>
</clipPath>
</defs>
</svg>

<svg xmlns="http://www.w3.org/2000/svg" width="66.667" height="64" fill="none" viewBox="0 0 50 48"><g clip-path="url(#a)"><path fill="#251D63" fill-rule="evenodd" d="M30.571 3.532 10.628 38.12c-1.324 2.281-.515 5.446 1.84 6.77 2.281 1.325 5.446.516 6.77-1.84l9.935-17.22L39.181 8.536c1.325-2.28.516-5.445-1.84-6.77-2.28-1.325-5.445-.515-6.77 1.766Zm-19.943 0c1.325-2.281 4.49-3.09 6.77-1.766 2.282 1.325 3.165 4.49 1.84 6.77L9.23 25.83c-1.325 2.282-4.489 3.165-6.77 1.84C.178 26.272-.705 23.181.62 20.826L10.628 3.532ZM40.58 20.826c1.324-2.281 4.489-3.164 6.77-1.84 2.281 1.325 3.164 4.49 1.84 6.77L39.18 43.125c-1.324 2.282-4.488 3.164-6.77 1.84-2.281-1.325-3.164-4.49-1.84-6.77L40.58 20.825Z" clip-rule="evenodd"/></g><defs><clipPath id="a"><path fill="#fff" d="M0 0h50v47.727H0z"/></clipPath></defs></svg>
